svgs/wsc.svg

<svg xmlns="http://www.w3.org/2000/svg" viewBox="0 0 24 24"><path d="M9.451 20.681c-.017 0-.017-.013-.017-.611 0-.336 0-.614-.009-.619 0-.006-.08-.045-.169-.088a6.09 6.09 0 0 1-.878-.544 6.308 6.308 0 0 1-1.623-1.792 8.71 8.71 0 0 1-.337-.66 7.497 7.497 0 0 1-.242-.642 6.397 6.397 0 0 1-.241-1.189c0-.05-.012-.144-.019-.21a7.238 7.238 0 0 1 0-.807c.01-.049.014-.137.019-.197 0-.059.014-.143.022-.187.01-.043.024-.143.037-.222.013-.078.029-.165.035-.191.01-.027.021-.089.032-.139.028-.125.127-.477.165-.581.109-.299.176-.461.284-.691.149-.315.337-.644.525-.916.14-.202.295-.405.31-.405l.032 3.44c.094.55.346 1.004.749 1.351.175.152.262.21.472.316.122.062.251.11.423.161.109.031.153.039.311.057.104.012 5.27.013 5.352.001.216-.032.312-.055.459-.109.333-.125.588-.284.841-.524.368-.404.563-.801.649-1.288l.021-3.421c.327.426.632.895.84 1.335.431.924.629 1.855.598 2.812-.01.207-.04.567-.067.72-.01.043-.023.134-.035.203-.179 1.025-.7 2.085-1.434 2.919a6.18 6.18 0 0 1-.976.883 6.169 6.169 0 0 1-.819.509c-.09.044-.172.088-.181.097-.016.016-.016.044-.016.598v.653L12.015 22Zm-.02-6.302a1.62 1.62 0 0 1-.398-.124 1.106 1.106 0 0 1-.252-.176 1.227 1.227 0 0 1-.377-.565V2.891c.076-.233.198-.412.396-.586a1.182 1.182 0 0 1 .783-.296c.171-.011 4.658-.011 4.873-.001.224.011.366.052.566.163.224.123.406.315.517.546.081.168.111.28.129.477l-.011 10.139a1.287 1.287 0 0 1-.195.49 1.07 1.07 0 0 1-.22.248 1.192 1.192 0 0 1-.417.255Zm2.681-.664a.808.808 0 0 0 .133-.053.631.631 0 0 0 .358-.526.705.705 0 0 0-.064-.316.659.659 0 0 0-.184-.227.596.596 0 0 0-.384-.13.474.474 0 0 0-.264.059.598.598 0 0 0-.298.28.542.542 0 0 0-.072.29.578.578 0 0 0 .07.294.429.429 0 0 0 .115.153.861.861 0 0 0 .117.096c.049.029.156.074.201.085.053.012.215.01.272-.004Zm2.538-1.729.01-8.332-5.305.004c-.011.018-.011 8.281 0 8.31l5.297.018Z"/></svg>

<svg
    xmlns="http://www.w3.org/2000/svg"
    viewBox="0 0 24 24"
    id="vector">
    <path
        id="path"
        d="M 9.451 20.681 C 9.434 20.681 9.434 20.668 9.434 20.07 C 9.434 19.734 9.434 19.456 9.425 19.451 C 9.425 19.445 9.345 19.406 9.256 19.363 C 9.007 19.243 8.655 19.025 8.378 18.819 C 7.737 18.344 7.181 17.729 6.755 17.027 C 6.681 16.904 6.495 16.542 6.418 16.367 C 6.344 16.201 6.228 15.892 6.176 15.725 C 6.061 15.35 5.958 14.843 5.935 14.536 C 5.935 14.486 5.923 14.392 5.916 14.326 C 5.901 14.174 5.901 13.645 5.916 13.519 C 5.926 13.47 5.93 13.382 5.935 13.322 C 5.935 13.263 5.949 13.179 5.957 13.135 C 5.967 13.092 5.981 12.992 5.994 12.913 C 6.007 12.835 6.023 12.748 6.029 12.722 C 6.039 12.695 6.05 12.633 6.061 12.583 C 6.089 12.458 6.188 12.106 6.226 12.002 C 6.335 11.703 6.402 11.541 6.51 11.311 C 6.659 10.996 6.847 10.667 7.035 10.395 C 7.175 10.193 7.33 9.99 7.345 9.99 L 7.377 13.43 C 7.471 13.98 7.723 14.434 8.126 14.781 C 8.301 14.933 8.388 14.991 8.598 15.097 C 8.72 15.159 8.849 15.207 9.021 15.258 C 9.13 15.289 9.174 15.297 9.332 15.315 C 9.436 15.327 14.602 15.328 14.684 15.316 C 14.9 15.284 14.996 15.261 15.143 15.207 C 15.476 15.082 15.731 14.923 15.984 14.683 C 16.352 14.279 16.547 13.882 16.633 13.395 L 16.654 9.974 C 16.981 10.4 17.286 10.869 17.494 11.309 C 17.925 12.233 18.123 13.164 18.092 14.121 C 18.082 14.328 18.052 14.688 18.025 14.841 C 18.015 14.884 18.002 14.975 17.99 15.044 C 17.811 16.069 17.29 17.129 16.556 17.963 C 16.281 18.275 15.904 18.616 15.58 18.846 C 15.254 19.078 14.988 19.243 14.761 19.355 C 14.671 19.399 14.589 19.443 14.58 19.452 C 14.564 19.468 14.564 19.496 14.564 20.05 L 14.564 20.703 L 12.015 22 Z M 9.431 14.379 C 9.315 14.362 9.131 14.304 9.033 14.255 C 8.942 14.209 8.881 14.166 8.781 14.079 C 8.597 13.918 8.481 13.745 8.404 13.514 L 8.404 2.891 C 8.48 2.658 8.602 2.479 8.8 2.305 C 8.892 2.225 8.982 2.167 9.09 2.117 C 9.237 2.049 9.359 2.022 9.583 2.009 C 9.754 1.998 14.241 1.998 14.456 2.008 C 14.68 2.019 14.822 2.06 15.022 2.171 C 15.246 2.294 15.428 2.486 15.539 2.717 C 15.62 2.885 15.65 2.997 15.668 3.194 L 15.657 13.333 C 15.622 13.52 15.561 13.672 15.462 13.823 C 15.398 13.921 15.344 13.982 15.242 14.071 C 15.09 14.203 14.975 14.274 14.825 14.326 Z M 12.112 13.715 C 12.141 13.708 12.201 13.684 12.245 13.662 C 12.453 13.56 12.584 13.368 12.603 13.136 C 12.613 13.053 12.581 12.909 12.539 12.82 C 12.499 12.736 12.427 12.647 12.355 12.593 C 12.284 12.539 12.238 12.516 12.145 12.486 C 12.083 12.467 12.054 12.463 11.971 12.463 C 11.848 12.464 11.813 12.471 11.707 12.522 C 11.566 12.588 11.483 12.667 11.409 12.802 C 11.356 12.9 11.336 12.979 11.337 13.092 C 11.338 13.211 11.353 13.276 11.407 13.386 C 11.44 13.454 11.459 13.479 11.522 13.539 C 11.563 13.578 11.616 13.622 11.639 13.635 C 11.688 13.664 11.795 13.709 11.84 13.72 C 11.893 13.732 12.055 13.73 12.112 13.716 Z M 14.65 11.986 L 14.66 3.654 L 9.355 3.658 C 9.344 3.676 9.344 11.939 9.355 11.968 L 14.652 11.986 Z"
        fill="#000000"
        stroke-width="0.008913"/>
</svg>
